src/assets/icons/Apple.svg

<svg width="30" height="30" viewBox="0 0 48 48" fill="none" xmlns="http://www.w3.org/2000/svg">
<path fill-rule="evenodd" clip-rule="evenodd" d="M0 24C0 10.7452 10.7452 0 24 0C37.2548 0 48 10.7452 48 24C48 37.2548 37.2548 48 24 48C10.7452 48 0 37.2548 0 24ZM27.9072 14.1615C28.8235 12.9786 29.5182 11.3066 29.2669 9.6C27.7692 9.70408 26.0186 10.6623 24.9972 11.9113C24.066 13.043 23.3007 14.7265 23.5996 16.3604C25.2369 16.4116 26.9268 15.4303 27.9072 14.1615ZM36 30.215C31.2343 28.4026 30.4707 21.6273 35.1871 19.0269C33.7485 17.2228 31.727 16.177 29.8187 16.177C27.2979 16.177 26.2321 17.3831 24.4815 17.3831C22.6767 17.3831 21.3055 16.1803 19.1262 16.1803C16.9848 16.1803 14.7054 17.4888 13.2602 19.7258C11.2288 22.8763 11.5753 28.7991 14.8696 33.8446C16.0471 35.6504 17.6203 37.6792 19.678 37.6974C21.5091 37.7155 22.0264 36.5227 24.5078 36.5095C26.9892 36.4946 27.4605 37.7122 29.2883 37.6924C31.3476 37.6759 33.0079 35.4274 34.1854 33.6216C35.0295 32.328 35.3448 31.6754 36 30.215Z" fill="currentColor"/>
</svg>

<svg width="30" height="30" viewBox="0 0 48 48" fill="none" xmlns="http://www.w3.org/2000/svg"><path fill-rule="evenodd" clip-rule="evenodd" d="M0 24C0 10.745 10.745 0 24 0s24 10.745 24 24-10.745 24-24 24S0 37.255 0 24zm27.907-9.838c.916-1.183 1.611-2.855 1.36-4.562-1.498.104-3.248 1.062-4.27 2.311-.931 1.132-1.696 2.816-1.397 4.45 1.637.05 3.327-.93 4.307-2.2zM36 30.215c-4.766-1.812-5.53-8.588-.813-11.188-1.438-1.804-3.46-2.85-5.368-2.85-2.521 0-3.587 1.206-5.337 1.206-1.805 0-3.177-1.203-5.356-1.203-2.141 0-4.42 1.309-5.866 3.546-2.031 3.15-1.685 9.073 1.61 14.119 1.177 1.805 2.75 3.834 4.808 3.852 1.831.018 2.348-1.174 4.83-1.188 2.481-.014 2.953 1.203 4.78 1.183 2.06-.016 3.72-2.265 4.897-4.07.844-1.294 1.16-1.947 1.815-3.407z" fill="currentColor"/></svg>
